X:0045
T:Dance in Queen Mab.
M:6/8
L:1/8
Q:3/8=120
I: || :: :: ::
Z:Jack Campin * www.campin.me.uk * 2009
K:G
A| B2c     ded| c2B     ABc| dBG      E2A    |FDF G2||
A| B2G     c2A| B2G     A2g| dBG      E2A    |FDF G2:|
d| g2d     gdB| g2B     a2c| Bcd      E2A    |FDF G2:|
A|(B/c/dB) c2e|(A/B/cA) B2d|(G/A/cA) (A/B/cA)|FDF G2:|

